app/assets/images/heroicons/mini/qr-code.svg

<svg width="20" height="20" viewBox="0 0 20 20" fill="none" xmlns="http://www.w3.org/2000/svg">
<path fill-rule="evenodd" clip-rule="evenodd" d="M3.75 2C2.7835 2 2 2.7835 2 3.75V7.25C2 8.2165 2.7835 9 3.75 9H7.25C8.2165 9 9 8.2165 9 7.25V3.75C9 2.7835 8.2165 2 7.25 2H3.75ZM3.5 3.75C3.5 3.61193 3.61193 3.5 3.75 3.5H7.25C7.38807 3.5 7.5 3.61193 7.5 3.75V7.25C7.5 7.38807 7.38807 7.5 7.25 7.5H3.75C3.61193 7.5 3.5 7.38807 3.5 7.25V3.75ZM3.75 11C2.7835 11 2 11.7835 2 12.75V16.25C2 17.2165 2.7835 18 3.75 18H7.25C8.2165 18 9 17.2165 9 16.25V12.75C9 11.7835 8.2165 11 7.25 11H3.75ZM3.5 12.75C3.5 12.6119 3.61193 12.5 3.75 12.5H7.25C7.38807 12.5 7.5 12.6119 7.5 12.75V16.25C7.5 16.3881 7.38807 16.5 7.25 16.5H3.75C3.61193 16.5 3.5 16.3881 3.5 16.25V12.75ZM11 3.75C11 2.7835 11.7835 2 12.75 2H16.25C17.2165 2 18 2.7835 18 3.75V7.25C18 8.2165 17.2165 9 16.25 9H12.75C11.7835 9 11 8.2165 11 7.25V3.75ZM12.75 3.5C12.6119 3.5 12.5 3.61193 12.5 3.75V7.25C12.5 7.38807 12.6119 7.5 12.75 7.5H16.25C16.3881 7.5 16.5 7.38807 16.5 7.25V3.75C16.5 3.61193 16.3881 3.5 16.25 3.5H12.75ZM5.49023 4.5C4.93795 4.5 4.49023 4.94772 4.49023 5.5V5.51C4.49023 6.06228 4.93795 6.51 5.49023 6.51H5.50023C6.05252 6.51 6.50023 6.06228 6.50023 5.51V5.5C6.50023 4.94772 6.05252 4.5 5.50023 4.5H5.49023ZM14.4902 4.5C13.9379 4.5 13.4902 4.94772 13.4902 5.5V5.51C13.4902 6.06228 13.9379 6.51 14.4902 6.51H14.5002C15.0525 6.51 15.5002 6.06228 15.5002 5.51V5.5C15.5002 4.94772 15.0525 4.5 14.5002 4.5H14.4902ZM5.49023 13.5C4.93795 13.5 4.49023 13.9477 4.49023 14.5V14.51C4.49023 15.0623 4.93795 15.51 5.49023 15.51H5.50023C6.05252 15.51 6.50023 15.0623 6.50023 14.51V14.5C6.50023 13.9477 6.05252 13.5 5.50023 13.5H5.49023ZM14.4902 13.5C13.9379 13.5 13.4902 13.9477 13.4902 14.5V14.51C13.4902 15.0623 13.9379 15.51 14.4902 15.51H14.5002C15.0525 15.51 15.5002 15.0623 15.5002 14.51V14.5C15.5002 13.9477 15.0525 13.5 14.5002 13.5H14.4902ZM10.9902 12C10.9902 11.4477 11.4379 11 11.9902 11H12.0002C12.5525 11 13.0002 11.4477 13.0002 12V12.01C13.0002 12.5623 12.5525 13.01 12.0002 13.01H11.9902C11.4379 13.01 10.9902 12.5623 10.9902 12.01V12ZM16.9902 11C16.4379 11 15.9902 11.4477 15.9902 12V12.01C15.9902 12.5623 16.4379 13.01 16.9902 13.01H17.0002C17.5525 13.01 18.0002 12.5623 18.0002 12.01V12C18.0002 11.4477 17.5525 11 17.0002 11H16.9902ZM15.9902 17C15.9902 16.4477 16.4379 16 16.9902 16H17.0002C17.5525 16 18.0002 16.4477 18.0002 17V17.01C18.0002 17.5623 17.5525 18.01 17.0002 18.01H16.9902C16.4379 18.01 15.9902 17.5623 15.9902 17.01V17ZM11.9902 16C11.4379 16 10.9902 16.4477 10.9902 17V17.01C10.9902 17.5623 11.4379 18.01 11.9902 18.01H12.0002C12.5525 18.01 13.0002 17.5623 13.0002 17.01V17C13.0002 16.4477 12.5525 16 12.0002 16H11.9902Z" fill="#0F172A"/>
</svg>

<svg xmlns="http://www.w3.org/2000/svg" viewBox="0 0 20 20" fill="currentColor" aria-hidden="true" data-slot="icon">
  <path fill-rule="evenodd" d="M3.75 2A1.75 1.75 0 0 0 2 3.75v3.5C2 8.216 2.784 9 3.75 9h3.5A1.75 1.75 0 0 0 9 7.25v-3.5A1.75 1.75 0 0 0 7.25 2h-3.5ZM3.5 3.75a.25.25 0 0 1 .25-.25h3.5a.25.25 0 0 1 .25.25v3.5a.25.25 0 0 1-.25.25h-3.5a.25.25 0 0 1-.25-.25v-3.5ZM3.75 11A1.75 1.75 0 0 0 2 12.75v3.5c0 .966.784 1.75 1.75 1.75h3.5A1.75 1.75 0 0 0 9 16.25v-3.5A1.75 1.75 0 0 0 7.25 11h-3.5Zm-.25 1.75a.25.25 0 0 1 .25-.25h3.5a.25.25 0 0 1 .25.25v3.5a.25.25 0 0 1-.25.25h-3.5a.25.25 0 0 1-.25-.25v-3.5Zm7.5-9c0-.966.784-1.75 1.75-1.75h3.5c.966 0 1.75.784 1.75 1.75v3.5A1.75 1.75 0 0 1 16.25 9h-3.5A1.75 1.75 0 0 1 11 7.25v-3.5Zm1.75-.25a.25.25 0 0 0-.25.25v3.5c0 .138.112.25.25.25h3.5a.25.25 0 0 0 .25-.25v-3.5a.25.25 0 0 0-.25-.25h-3.5Zm-7.26 1a1 1 0 0 0-1 1v.01a1 1 0 0 0 1 1h.01a1 1 0 0 0 1-1V5.5a1 1 0 0 0-1-1h-.01Zm9 0a1 1 0 0 0-1 1v.01a1 1 0 0 0 1 1h.01a1 1 0 0 0 1-1V5.5a1 1 0 0 0-1-1h-.01Zm-9 9a1 1 0 0 0-1 1v.01a1 1 0 0 0 1 1h.01a1 1 0 0 0 1-1v-.01a1 1 0 0 0-1-1h-.01Zm9 0a1 1 0 0 0-1 1v.01a1 1 0 0 0 1 1h.01a1 1 0 0 0 1-1v-.01a1 1 0 0 0-1-1h-.01Zm-3.5-1.5a1 1 0 0 1 1-1H12a1 1 0 0 1 1 1v.01a1 1 0 0 1-1 1h-.01a1 1 0 0 1-1-1V12Zm6-1a1 1 0 0 0-1 1v.01a1 1 0 0 0 1 1H17a1 1 0 0 0 1-1V12a1 1 0 0 0-1-1h-.01Zm-1 6a1 1 0 0 1 1-1H17a1 1 0 0 1 1 1v.01a1 1 0 0 1-1 1h-.01a1 1 0 0 1-1-1V17Zm-4-1a1 1 0 0 0-1 1v.01a1 1 0 0 0 1 1H12a1 1 0 0 0 1-1V17a1 1 0 0 0-1-1h-.01Z" clip-rule="evenodd"/>
</svg>
